src/images_karasa_jaga_svg/cmd/lc_calloutshapes.rectangular-callout.svg

<svg height="24" viewBox="0 0 24 24" width="24" xmlns="http://www.w3.org/2000/svg" xmlns:xlink="http://www.w3.org/1999/xlink"><linearGradient id="a" gradientUnits="userSpaceOnUse" x1="72" x2="72" y1="128" y2="0"><stop offset="0" stop-color="#fff"/><stop offset=".59375" stop-color="#fff"/><stop offset=".84375" stop-color="#f1f1f1"/><stop offset=".90625" stop-color="#eaeaea"/><stop offset="1" stop-color="#dfdfdf"/></linearGradient><linearGradient id="b" gradientUnits="userSpaceOnUse" x1="5.822266" x2="122.17578" y1="64.000771" y2="64.000771"><stop offset="0" stop-color="#7c9fcf"/><stop offset=".5" stop-color="#7c9ece"/><stop offset="1" stop-color="#7b9dcf"/></linearGradient><g transform="matrix(.171875 0 0 .171875 1 1)"><path d="m11.636719 5.8242188a5.8151495 5.8151495 0 0 0 -5.8144534 5.8144532v75.634766a5.8151495 5.8151495 0 0 0 5.8144534 5.814453h18.818359l-12.169922 20.283199a5.8151495 5.8151495 0 0 0 8.708985 7.45899l33.292968-27.742189h56.074221a5.8151495 5.8151495 0 0 0 5.81445-5.814453v-75.634766a5.8151495 5.8151495 0 0 0 -5.81445-5.8144532z" fill="url(#b)"/><path d="m11.6362 11.638v75.6353h29.0905l-17.4543 29.0905 34.9086-29.0905h58.181v-75.6353z" fill="url(#a)"/></g></svg>

<?xml version="1.0" encoding="UTF-8" standalone="no"?>
<!-- Created with Inkscape (http://www.inkscape.org/) -->

<svg
   xmlns:dc="http://purl.org/dc/elements/1.1/"
   xmlns:cc="http://creativecommons.org/ns#"
   xmlns:rdf="http://www.w3.org/1999/02/22-rdf-syntax-ns#"
   xmlns:svg="http://www.w3.org/2000/svg"
   xmlns="http://www.w3.org/2000/svg"
   xmlns:xlink="http://www.w3.org/1999/xlink"
   xmlns:sodipodi="http://sodipodi.sourceforge.net/DTD/sodipodi-0.dtd"
   xmlns:inkscape="http://www.inkscape.org/namespaces/inkscape"
   version="1.1"
   id="svg2"
   width="128"
   height="128"
   viewBox="0 0 128 128"
   sodipodi:docname="lc_calloutshapes.rectangular-callout.svg"
   inkscape:export-filename="/home/rizmut/Dokumen/Rizmut/Github/libreoffice-style-karasa-jaga/build/images_karasa_jaga/cmd/lc_calloutshapes.rectangular-callout.png"
   inkscape:export-xdpi="16.5"
   inkscape:export-ydpi="16.5"
   inkscape:version="0.92.3 (unknown)">
  <metadata
     id="metadata8">
    <rdf:RDF>
      <cc:Work
         rdf:about="">
        <dc:format>image/svg+xml</dc:format>
        <dc:type
           rdf:resource="http://purl.org/dc/dcmitype/StillImage" />
        <dc:title></dc:title>
      </cc:Work>
    </rdf:RDF>
  </metadata>
  <defs
     id="defs6">
    <linearGradient
       inkscape:collect="always"
       id="linearGradient825">
      <stop
         style="stop-color:#f9f9fa;stop-opacity:1;"
         offset="0"
         id="stop821" />
      <stop
         style="stop-color:#f9f9fa;stop-opacity:0;"
         offset="1"
         id="stop823" />
    </linearGradient>
    <linearGradient
       inkscape:collect="always"
       xlink:href="#linearGradient825"
       id="linearGradient1536"
       x1="70.052383"
       y1="-18.468208"
       x2="62.030193"
       y2="84.412926"
       gradientUnits="userSpaceOnUse" />
    <linearGradient
       id="linearGradient3369">
      <stop
         id="stop3372"
         offset="0"
         style="stop-color:#ffffff;stop-opacity:1;" />
      <stop
         style="stop-color:#ffffff;stop-opacity:1;"
         offset="0.59375"
         id="stop3374" />
      <stop
         style="stop-color:#f1f1f1;stop-opacity:1;"
         offset="0.84375"
         id="stop3376" />
      <stop
         id="stop3378"
         offset="0.90625"
         style="stop-color:#eaeaea;stop-opacity:1;" />
      <stop
         id="stop3384"
         offset="1"
         style="stop-color:#dfdfdf;stop-opacity:1;" />
    </linearGradient>
    <linearGradient
       id="linearGradient7422">
      <stop
         style="stop-color:#7c9fcf;stop-opacity:1"
         offset="0"
         id="stop7424" />
      <stop
         id="stop5348"
         offset="0.5"
         style="stop-color:#7c9ece;stop-opacity:1" />
      <stop
         id="stop7426"
         offset="1"
         style="stop-color:#7b9dcf;stop-opacity:1" />
    </linearGradient>
    <linearGradient
       inkscape:collect="always"
       xlink:href="#linearGradient3369"
       id="linearGradient8528"
       x1="72"
       y1="128"
       x2="72"
       y2="0"
       gradientUnits="userSpaceOnUse" />
    <linearGradient
       inkscape:collect="always"
       xlink:href="#linearGradient7422"
       id="linearGradient845"
       x1="5.8222656"
       y1="64.000771"
       x2="122.17578"
       y2="64.000771"
       gradientUnits="userSpaceOnUse" />
  </defs>
  <sodipodi:namedview
     pagecolor="#ffffff"
     bordercolor="#666666"
     borderopacity="1"
     objecttolerance="10"
     gridtolerance="10"
     guidetolerance="10"
     inkscape:pageopacity="0"
     inkscape:pageshadow="2"
     inkscape:window-width="1366"
     inkscape:window-height="706"
     id="namedview4"
     showgrid="true"
     inkscape:snap-page="true"
     inkscape:snap-global="false"
     inkscape:zoom="2.0000001"
     inkscape:cx="20.191237"
     inkscape:cy="108.0761"
     inkscape:window-x="0"
     inkscape:window-y="0"
     inkscape:window-maximized="1"
     inkscape:current-layer="svg2"
     inkscape:snap-smooth-nodes="true">
    <inkscape:grid
       type="xygrid"
       id="grid27"
       spacingx="5.8181"
       spacingy="5.8181"
       empspacing="1" />
  </sodipodi:namedview>
  <path
     sodipodi:type="inkscape:offset"
     inkscape:radius="5.814568"
     inkscape:original="M 11.636719 11.638672 L 11.636719 87.273438 L 40.726562 87.273438 L 23.271484 116.36328 L 58.181641 87.273438 L 116.36133 87.273438 L 116.36133 11.638672 L 11.636719 11.638672 z "
     style="opacity:1;fill:url(#linearGradient845);fill-opacity:1.0;stroke:none;stroke-width:5.29160166;stroke-linecap:square;stroke-linejoin:bevel;stroke-miterlimit:4;stroke-dasharray:none;stroke-dashoffset:0;stroke-opacity:0.73039216"
     id="path835"
     d="M 11.636719,5.8242188 A 5.8151495,5.8151495 0 0 0 5.8222656,11.638672 v 75.634766 a 5.8151495,5.8151495 0 0 0 5.8144534,5.814453 H 30.455078 L 18.285156,113.37109 a 5.8151495,5.8151495 0 0 0 8.708985,7.45899 L 60.287109,93.087891 h 56.074221 a 5.8151495,5.8151495 0 0 0 5.81445,-5.814453 V 11.638672 a 5.8151495,5.8151495 0 0 0 -5.81445,-5.8144532 z" />
  <path
     id="circle1528"
     style="opacity:1;fill:url(#linearGradient1536);fill-opacity:1;stroke:none;stroke-width:3.85701394;stroke-linecap:round;stroke-linejoin:bevel;stroke-miterlimit:4;stroke-dasharray:none;stroke-dashoffset:0;stroke-opacity:0.73039216"
     r="42.122112"
     cy="64"
     cx="64" />
  <path
     style="opacity:1;fill:url(#linearGradient8528);fill-opacity:1;stroke:none;stroke-width:5.29160166;stroke-linecap:square;stroke-linejoin:bevel;stroke-miterlimit:4;stroke-dasharray:none;stroke-dashoffset:0;stroke-opacity:0.73039216"
     d="m 11.6362,11.638 0,75.6353 H 40.7267 L 23.2724,116.3638 58.181,87.2733 h 58.181 l 0,-75.6353 z"
     id="rect8502"
     inkscape:connector-curvature="0"
     sodipodi:nodetypes="cccccccc" />
</svg>
